!!!OTL: 474. Die Maegdlein sind von Flandern.
!!!ARE: Europa, Mitteleuropa, Deutschland
!!!SCT: E0474
!!!TXL: @@DE
!!!YEM: Copyright 1995, estate of Helmut Schaffrath.
**kern	**text
*ICvox	*
*M4/4	*
*met(c)	*
*k[f#]	*
*G:	*
!LO:TX:a:t=Ammerbach. Orgelb. 1571, Rr. 7.	!
{4g	Mein
=1	=1
4g	Feins-
4g	-lieb
4a	iſt
4b	von
=2	=2
2cc	Flan-
4cc}	-dern
{8bL	und
8aJ	.
=3	=3
4g	hat
4cc	ein'
4cc	wan-
4b	-keln
=4	=4
2cc	Muth,
4r}	.
{4g	Sie
=5	=5
4g	giebt
4g	ein
4a	um
4b	den
=6	=6
2cc	an-
4cc}	-dern,
{8bL	das
8aJ	.
=7	=7
4g	thut
4cc	die
4cc	Läng
4b	nit
=8	=8
2cc	gut;
4r}	.
{4dd	doch
=9	=9
4ee	bin
8ddL	ich
8ccJ	.
(4.b	ſtets
8cc	.
=10	=10
4dd)}	.
{4dd	ihr
4dd	al-
4dd	-ler
=11	=11
4.a	Wohl-
8b/	-ge-
4cc}	-muth,
{4dd	ich
=12	=12
4b/	wünſch
4g	ihr
4g	al-
4f#X	-les
=13	=13
2g	Gut'.
4r}	.
==	==
!!!AGN: Liebes - Lied, Klage
!!!ONB: ESAC (Essen Associative Code) Database: ERK1
!!!AMT: simple quadruple
!!!AIN: vox
!!!EED: Helmut Schaffrath
!!!EEV: 1.0
!!!GTL: Liebeslieder [Alte (aus dem 13. bis 17. Jahrh.) mit ihrem jungen Nachwuchs]
!!!URL-scan: https://rosdok.uni-rostock.de/mcrviewer/recordIdentifier/rosdok_ppn745177662/iview2/phys_0298.iview2?x=-445.812200956939&y=1455.6481306843925&scale=0.47662485746864275&rotation=0&layout=singlePageLayout
!!!ENC: Anna Maria Matuszewska
!!!EEV: 2024/10/12
*-	*-
